src/basic/300/u1F5D9-close.svg

<svg width="36" height="48" viewBox="0 0 36 48" fill="none" xmlns="http://www.w3.org/2000/svg">
<path fill-rule="evenodd" clip-rule="evenodd" d="M18,24.7071l-16.89645,16.8965l-0.70711,-0.7072l16.89646,-16.8964l-16.89648,-16.89645l0.70711,-0.70711l16.89647,16.89646l16.8965,-16.89646l0.7071,0.70711l-16.8965,16.89645l16.8965,16.8964l-0.7071,0.7072z" fill="black"/>
</svg>

<svg width="36" height="48" viewBox="0 0 36 48" fill="none" xmlns="http://www.w3.org/2000/svg">
<path fill-rule="evenodd" clip-rule="evenodd" d="M18 24.7071L1.10355 41.6036L0.396443 40.8964L17.2929 24L0.396419 7.10355L1.10353 6.39644L18 23.2929L34.8965 6.39644L35.6036 7.10355L18.7071 24L35.6036 40.8964L34.8965 41.6036L18 24.7071Z" fill="black"/>
</svg>
